!!!XEN: Song of the deer (a)
!!!AGN: Dream song
!!!COM: Anonymous
!!!CNT: Native American -- Ojibway
!!!TXO: Ojibway
!!!MLC: Lac du Flambeau reservation, northern Wisconsin, U.S.A.
!!!MRD: 1909-1912///
!!!MPN: E'niwub'e ("Sits farther along")
**kern
*MM104
*Imale
*k[f#c#g#d#a#]
*clefF4
*M2/4
=1
8d#
8d#
8B
8B
=2
8d#
8d#
4c#
=3
*M3/4
16.G#
32G#
8G#
4G#
4G#
=4
*M2/4
8c#
8c#
8c#
8B
=5
8c#
8B
4G#
=6
*M3/4
16.D#
32D#
8D#
4D#
4D#
=7
*M2/4
8G#
8G#
8G#
8F#
=8
8G#
8G#
4G#
=9
16.D#
32D#
8D#
4D#
=10
4D#
8D#
8D#
=11
*M3/4
[2D#
8.D#]
16D#
=12
*M2/4
4D#
8D#
8D#
=13
*M3/4
[2D#
8.D#]
16D#
=14
2.D#
==
*-
!!!OCL: Frances Densmore
!!!YOR: Chippewa [i.e., Ojibway] Music--II, Bulletin 53 of the Bureau of American Ethnology, Smitsonian Institution
!!!ONM: 95
!!!PPG: 200
!!!PUB: published
!!!PPR: Government Printing Office
!!!PPP: Washington, D.C.
!!!PDT: 1912///
!!!EST: missing clef changes, text, drum tempo, and drum part
!!!YEC: Copyright 1998 Paul von Hippel
!!!YEM: Rights to all derivate electronic formats reserved.
!!!EFL: 31/42
